SVG_Azure_Grouped/Management/Azure Monitor Private Link Scope.svg

<?xml version="1.0" encoding="UTF-8" standalone="no"?>
<!-- Generated by Microsoft Visio, SVG Export Azure Monitor Private Link Scope.svg Page-1 -->

<svg
   xmlns:dc="http://purl.org/dc/elements/1.1/"
   xmlns:cc="http://creativecommons.org/ns#"
   xmlns:rdf="http://www.w3.org/1999/02/22-rdf-syntax-ns#"
   xmlns:svg="http://www.w3.org/2000/svg"
   xmlns="http://www.w3.org/2000/svg"
   xmlns:sodipodi="http://sodipodi.sourceforge.net/DTD/sodipodi-0.dtd"
   xmlns:inkscape="http://www.inkscape.org/namespaces/inkscape"
   width="0.51180816in"
   height="0.79080498in"
   viewBox="0 0 36.849935 56.937668"
   xml:space="preserve"
   class="st5"
   version="1.1"
   id="svg68"
   sodipodi:docname="Azure Monitor Private Link Scope.svg"
   style="font-size:12px;overflow:visible;color-interpolation-filters:sRGB;fill:none;fill-rule:evenodd;stroke-linecap:square;stroke-miterlimit:3"
   inkscape:version="0.92.5 (2060ec1f9f, 2020-04-08)"><metadata
   id="metadata72"><rdf:RDF><cc:Work
       rdf:about=""><dc:format>image/svg+xml</dc:format><dc:type
         rdf:resource="http://purl.org/dc/dcmitype/StillImage" /></cc:Work></rdf:RDF></metadata><sodipodi:namedview
   pagecolor="#ffffff"
   bordercolor="#666666"
   borderopacity="1"
   objecttolerance="10"
   gridtolerance="10"
   guidetolerance="10"
   inkscape:pageopacity="0"
   inkscape:pageshadow="2"
   inkscape:window-width="640"
   inkscape:window-height="480"
   id="namedview70"
   showgrid="false"
   inkscape:zoom="1.4157889"
   inkscape:cx="24.566788"
   inkscape:cy="37.993924"
   inkscape:window-x="0"
   inkscape:window-y="0"
   inkscape:window-maximized="0"
   inkscape:current-layer="svg68" />
	<style
   type="text/css"
   id="style2">
	<![CDATA[
		.st1 {fill:#7a7a7a;stroke:none;stroke-linecap:butt;stroke-width:34}
		.st2 {fill:#1490df;stroke:none;stroke-linecap:butt;stroke-width:34}
		.st3 {fill:url(#grad0-10);stroke:none;stroke-linecap:butt;stroke-width:34}
		.st4 {fill:url(#grad0-14);stroke:none;stroke-linecap:butt;stroke-width:34}
		.st5 {fill:none;fill-rule:evenodd;font-size:12px;overflow:visible;stroke-linecap:square;stroke-miterlimit:3}
	]]>
	</style>

	<defs
   id="Patterns_And_Gradients">
		<linearGradient
   id="grad0-10"
   x1="-0.0019825959"
   y1="125.92247"
   x2="19.210858"
   y2="125.92247"
   gradientTransform="scale(1.1608967,0.86140308)"
   gradientUnits="userSpaceOnUse">
			<stop
   offset="0.23"
   stop-color="#5ea0ef"
   stop-opacity="1"
   id="stop4" />
			<stop
   offset="0.32"
   stop-color="#5b9fee"
   stop-opacity="1"
   id="stop6" />
			<stop
   offset="0.48"
   stop-color="#509aeb"
   stop-opacity="1"
   id="stop8" />
			<stop
   offset="0.57"
   stop-color="#3f92e6"
   stop-opacity="1"
   id="stop10" />
			<stop
   offset="0.75"
   stop-color="#2688df"
   stop-opacity="1"
   id="stop12" />
			<stop
   offset="0.93"
   stop-color="#127fd9"
   stop-opacity="1"
   id="stop14" />
		</linearGradient>
		<linearGradient
   id="grad0-14"
   x1="0.091640213"
   y1="125.8246"
   x2="19.262814"
   y2="125.8246"
   gradientTransform="scale(1.1597806,0.86223203)"
   gradientUnits="userSpaceOnUse">
			<stop
   offset="0.02"
   stop-color="#5ea0ef"
   stop-opacity="1"
   id="stop17" />
			<stop
   offset="0.14"
   stop-color="#5b9fee"
   stop-opacity="1"
   id="stop19" />
			<stop
   offset="0.23"
   stop-color="#5b9fee"
   stop-opacity="1"
   id="stop21" />
			<stop
   offset="0.34"
   stop-color="#509aeb"
   stop-opacity="1"
   id="stop23" />
			<stop
   offset="0.44"
   stop-color="#3f92e6"
   stop-opacity="1"
   id="stop25" />
			<stop
   offset="0.63"
   stop-color="#2688df"
   stop-opacity="1"
   id="stop27" />
			<stop
   offset="0.93"
   stop-color="#127fd9"
   stop-opacity="1"
   id="stop29" />
		</linearGradient>
	</defs>
	<g
   id="g66"
   transform="translate(-34.000095,-34.066629)">
		<title
   id="title33">Page-1</title>
		<g
   id="group12611-1"
   transform="translate(34,-34.0157)">
			<title
   id="title35">Azure Monitor Private Link Scope.12611</title>
			<g
   id="group12612-2">
				<title
   id="title37">Sheet.12612</title>
				<g
   id="shape12613-3"
   transform="translate(16.3059,-22.0419)">
					<title
   id="title39">Sheet.12613</title>
					<rect
   x="0"
   y="98.979698"
   width="3.99383"
   height="26.038601"
   class="st1"
   id="rect41"
   style="fill:#7a7a7a;stroke:none;stroke-width:34;stroke-linecap:butt" />
				</g>
				<g
   id="shape12614-5"
   transform="translate(14.1623,-44.6209)">
					<title
   id="title44">Sheet.12614</title>
					<path
   d="M 10,120.73 A 5.85762,6.06152 0 1 1 4.14,114.67 5.85762,6.06152 0 0 1 10,120.73 Z"
   class="st2"
   id="path46"
   inkscape:connector-curvature="0"
   style="fill:#1490df;stroke:none;stroke-width:34;stroke-linecap:butt" />
				</g>
				<g
   id="shape12615-7"
   transform="translate(3.19684,-6.88492)">
					<title
   id="title49">Sheet.12615</title>
					<path
   d="M 14.31,108.47 H 7.92 a 7.98767,8.2657 -180 0 0 -1.24,16.42 8.56915,8.86742 0 0 1 0.08,-3.07 5.04662,5.22228 0 0 1 1.16,-10.32 h 6.39 a 5.0589083,5.235 0 1 1 0,10.47 h -1.76 a 3.79491,3.927 -180 0 0 -0.38,1.67 3.67249,3.80032 -180 0 0 0.25,1.38 h 1.89 a 7.991822,8.27 -180 0 0 0,-16.54 z"
   class="st3"
   id="path51"
   inkscape:connector-curvature="0"
   style="fill:url(#grad0-10);stroke:none;stroke-width:34;stroke-linecap:butt" />
				</g>
				<g
   id="shape12616-11"
   transform="translate(11.1154)">
					<title
   id="title54">Sheet.12616</title>
					<path
   d="m 15.61,108.6 a 9.18123,9.50081 0 0 1 0.1,1.26 8.37022,8.66157 0 0 1 -0.18,1.81 5.04356,5.21911 0 0 1 -1.15,10.32 H 7.99 a 5.0589083,5.235 0 1 1 0,-10.47 h 1.75 a 3.60822,3.73382 -180 0 0 0.12,-3.03 H 7.99 a 7.98767,8.2657 -180 0 0 0,16.53 h 6.39 a 7.98767,8.2657 -180 0 0 1.22,-16.43 z"
   class="st4"
   id="path56"
   inkscape:connector-curvature="0"
   style="fill:url(#grad0-14);stroke:none;stroke-width:34;stroke-linecap:butt" />
				</g>
				<g
   id="shape12617-15"
   transform="translate(0,-40.4291)">
					<title
   id="title59">Sheet.12617</title>
					<path
   d="m 9.84,120.35 a 5.76581,5.96651 0 0 1 -1.38,-3.7 4.89666,5.0671 0 0 1 1.33,-3.45 1.3527,1.39979 -180 0 0 -1.84,-2.05 7.65102,7.91734 -180 0 0 -2.19,5.5 8.47121,8.76608 -180 0 0 2.14,5.64 1.34964,1.39662 -180 0 0 0.98,0.44 1.33434,1.38078 -180 0 0 0.92,-0.39 1.34964,1.39662 -180 0 0 0.04,-1.99 z M 3.74,125 a 1.34046,1.38712 0 0 1 -1.02,-0.48 12.3212,12.7501 0 0 1 -2.72,-7.8 13.123,13.5798 0 0 1 2.7,-7.75 1.35047,1.39748 0 0 1 2.1,1.75 10.5033,10.8689 -180 0 0 -2.09,6.02 9.5546,9.88718 -180 0 0 2.06,5.96 1.3527,1.39979 0 0 1 -1.02,2.32 z m 24.73,-13.84 a 1.3527,1.39979 -180 0 0 -1.84,2.04 4.89666,5.0671 0 0 1 1.34,3.49 5.76887,5.96968 0 0 1 -1.39,3.7 1.352785,1.3998758 -180 0 0 1.96,1.93 8.47121,8.76608 -180 0 0 2.13,-5.66 7.65102,7.91734 -180 0 0 -2.2,-5.5 z m 4.65,13.86 a 1.34964,1.39662 0 0 1 -1.02,-2.32 9.6862,10.0234 -180 0 0 2.06,-5.96 10.5003,10.8658 -180 0 0 -2.09,-6.02 1.3527,1.39979 0 0 1 2.09,-1.74 13.1598,13.6178 0 0 1 2.69,7.76 12.3243,12.7533 0 0 1 -2.72,7.8 1.3374,1.38395 0 0 1 -1.01,0.48 z"
   class="st2"
   id="path61"
   inkscape:connector-curvature="0"
   style="fill:#1490df;stroke:none;stroke-width:34;stroke-linecap:butt" />
				</g>
			</g>
		</g>
	</g>
</svg>

<?xml version="1.0" encoding="UTF-8" standalone="no"?>
<!DOCTYPE svg PUBLIC "-//W3C//DTD SVG 1.1//EN" "http://www.w3.org/Graphics/SVG/1.1/DTD/svg11.dtd">
<!-- Generated by Microsoft Visio, SVG Export Azure Monitor Private Link Scope.svg Page-1 -->
<svg xmlns="http://www.w3.org/2000/svg" xmlns:xlink="http://www.w3.org/1999/xlink" xmlns:ev="http://www.w3.org/2001/xml-events"
		width="1.45626in" height="1.73637in" viewBox="0 0 104.85 125.018" xml:space="preserve" color-interpolation-filters="sRGB"
		class="st5">
	<style type="text/css">
	<![CDATA[
		.st1 {fill:#7a7a7a;stroke:none;stroke-linecap:butt;stroke-width:34}
		.st2 {fill:#1490df;stroke:none;stroke-linecap:butt;stroke-width:34}
		.st3 {fill:url(#grad0-10);stroke:none;stroke-linecap:butt;stroke-width:34}
		.st4 {fill:url(#grad0-14);stroke:none;stroke-linecap:butt;stroke-width:34}
		.st5 {fill:none;fill-rule:evenodd;font-size:12px;overflow:visible;stroke-linecap:square;stroke-miterlimit:3}
	]]>
	</style>

	<defs id="Patterns_And_Gradients">
		<linearGradient id="grad0-10" x1="0" y1="0" x2="1" y2="0" gradientTransform="rotate(90 0.5 0.5)">
			<stop offset="0.23" stop-color="#5ea0ef" stop-opacity="1"/>
			<stop offset="0.32" stop-color="#5b9fee" stop-opacity="1"/>
			<stop offset="0.48" stop-color="#509aeb" stop-opacity="1"/>
			<stop offset="0.57" stop-color="#3f92e6" stop-opacity="1"/>
			<stop offset="0.75" stop-color="#2688df" stop-opacity="1"/>
			<stop offset="0.93" stop-color="#127fd9" stop-opacity="1"/>
		</linearGradient>
		<linearGradient id="grad0-14" x1="0" y1="0" x2="1" y2="0" gradientTransform="rotate(90 0.5 0.5)">
			<stop offset="0.02" stop-color="#5ea0ef" stop-opacity="1"/>
			<stop offset="0.14" stop-color="#5b9fee" stop-opacity="1"/>
			<stop offset="0.23" stop-color="#5b9fee" stop-opacity="1"/>
			<stop offset="0.34" stop-color="#509aeb" stop-opacity="1"/>
			<stop offset="0.44" stop-color="#3f92e6" stop-opacity="1"/>
			<stop offset="0.63" stop-color="#2688df" stop-opacity="1"/>
			<stop offset="0.93" stop-color="#127fd9" stop-opacity="1"/>
		</linearGradient>
	</defs>
	<g>
		<title>Page-1</title>
		<g id="group12318-1" transform="translate(34,-34.0157)">
			<title>Azure Monitor Private Link Scope.12318</title>
			<g id="group12319-2">
				<title>Sheet.12319</title>
				<g id="shape12320-3" transform="translate(16.3059,-22.0419)">
					<title>Sheet.12320</title>
					<rect x="0" y="98.9797" width="3.99383" height="26.0386" class="st1"/>
				</g>
				<g id="shape12321-5" transform="translate(14.1623,-44.6209)">
					<title>Sheet.12321</title>
					<path d="M10 120.73 A5.85762 6.06152 0 1 1 4.14 114.67 A5.85762 6.06152 0 0 1 10 120.73 Z" class="st2"/>
				</g>
				<g id="shape12322-7" transform="translate(3.19684,-6.88492)">
					<title>Sheet.12322</title>
					<path d="M14.31 108.47 L7.92 108.47 A7.98767 8.2657 -180 0 0 6.68 124.89 A8.56915 8.86742 0 0 1 6.76 121.82 A5.04662
								 5.22228 0 0 1 7.92 111.5 L14.31 111.5 A5.05886 5.23495 0 1 1 14.31 121.97 L12.55 121.97 A3.79491
								 3.927 -180 0 0 12.17 123.64 A3.67249 3.80032 -180 0 0 12.42 125.02 L14.31 125.02 A7.99073 8.26887
								 -180 0 0 14.31 108.48 L14.31 108.47 Z" class="st3"/>
				</g>
				<g id="shape12323-11" transform="translate(11.1154,-2.84217E-13)">
					<title>Sheet.12323</title>
					<path d="M15.61 108.6 A9.18123 9.50081 0 0 1 15.71 109.86 A8.37022 8.66157 0 0 1 15.53 111.67 A5.04356 5.21911
								 0 0 1 14.38 121.99 L7.99 121.99 A5.05886 5.23495 0 1 1 7.99 111.52 L9.74 111.52 A3.60822 3.73382
								 -180 0 0 9.86 108.49 L7.99 108.49 A7.98767 8.2657 -180 0 0 7.99 125.02 L14.38 125.02 A7.98767 8.2657
								 -180 0 0 15.6 108.59 L15.61 108.6 Z" class="st4"/>
				</g>
				<g id="shape12324-15" transform="translate(0,-40.4291)">
					<title>Sheet.12324</title>
					<path d="M9.84 120.35 A5.76581 5.96651 0 0 1 8.46 116.65 A4.89666 5.0671 0 0 1 9.79 113.2 A1.3527 1.39979 -180
								 0 0 7.95 111.15 A7.65102 7.91734 -180 0 0 5.76 116.65 A8.47121 8.76608 -180 0 0 7.9 122.29 A1.34964
								 1.39662 -180 0 0 8.88 122.73 A1.33434 1.38078 -180 0 0 9.8 122.34 A1.34964 1.39662 -180 0 0 9.84
								 120.35 ZM3.74 125 A1.34046 1.38712 0 0 1 2.72 124.52 A12.3212 12.7501 0 0 1 0 116.72 A13.123 13.5798
								 0 0 1 2.7 108.97 A1.35047 1.39748 0 0 1 4.8 110.72 A10.5033 10.8689 -180 0 0 2.71 116.74 A9.5546
								 9.88718 -180 0 0 4.77 122.7 A1.3527 1.39979 0 0 1 3.75 125.02 L3.74 125 ZM28.47 111.16 A1.3527 1.39979
								 -180 0 0 26.63 113.2 A4.89666 5.0671 0 0 1 27.97 116.69 A5.76887 5.96968 0 0 1 26.58 120.39 A1.35075
								 1.39777 -180 0 0 28.54 122.32 A8.47121 8.76608 -180 0 0 30.67 116.66 A7.65102 7.91734 -180 0 0 28.47
								 111.16 ZM33.12 125.02 A1.34964 1.39662 0 0 1 32.1 122.7 A9.6862 10.0234 -180 0 0 34.16 116.74 A10.5003
								 10.8658 -180 0 0 32.07 110.72 A1.3527 1.39979 0 0 1 34.16 108.98 A13.1598 13.6178 0 0 1 36.85 116.74
								 A12.3243 12.7533 0 0 1 34.13 124.54 A1.3374 1.38395 0 0 1 33.12 125.02 Z" class="st2"/>
				</g>
			</g>
		</g>
	</g>
</svg>
